images/icon/home.svg

<svg width="15" height="14" viewBox="0 0 15 14" fill="none" xmlns="http://www.w3.org/2000/svg">
<path d="M6.57003 0.671802C6.82898 0.449719 7.15886 0.327637 7.5 0.327637C7.84114 0.327637 8.17102 0.449719 8.42998 0.671802L12.9556 4.55026L14.7319 5.97165C14.8052 6.03028 14.8662 6.10276 14.9114 6.18495C14.9567 6.26715 14.9853 6.35745 14.9956 6.45071C15.006 6.54396 14.9979 6.63834 14.9717 6.72845C14.9456 6.81857 14.902 6.90265 14.8434 6.97591C14.7847 7.04917 14.7123 7.11016 14.6301 7.15541C14.5479 7.20065 14.4576 7.22927 14.3643 7.23961C14.2711 7.24996 14.1767 7.24184 14.0866 7.21571C13.9965 7.18958 13.9124 7.14596 13.8391 7.08734L13.2141 6.58735V12.2436C13.2141 12.6225 13.0636 12.9858 12.7957 13.2537C12.5278 13.5216 12.1645 13.6722 11.7856 13.6722H3.21441C2.83554 13.6722 2.47218 13.5216 2.20428 13.2537C1.93638 12.9858 1.78588 12.6225 1.78588 12.2436V6.58664L1.16089 7.08662C1.01294 7.20502 0.824023 7.25979 0.635688 7.2389C0.447353 7.218 0.275033 7.12315 0.156636 6.9752C0.038239 6.82725 -0.0165363 6.63833 0.00436007 6.44999C0.0252564 6.26166 0.120113 6.08934 0.268061 5.97094L2.04444 4.54955L6.57003 0.671802ZM3.21441 5.42953V12.2436H5.3572V9.38656C5.3572 9.00769 5.50771 8.64433 5.77561 8.37643C6.04351 8.10853 6.40687 7.95803 6.78574 7.95803H8.21427C8.59314 7.95803 8.95649 8.10853 9.22439 8.37643C9.49229 8.64433 9.6428 9.00769 9.6428 9.38656V12.2436H11.7856V5.42953L7.5 1.75606L3.21441 5.42953ZM8.21427 12.2436V9.38656H6.78574V12.2436H8.21427Z" fill="white"/>
</svg>

<svg width="15" height="14" fill="none" xmlns="http://www.w3.org/2000/svg"><path d="M6.57.672a1.429 1.429 0 011.86 0l4.526 3.878 1.776 1.422a.713.713 0 11-.893 1.115l-.625-.5v5.657a1.428 1.428 0 01-1.428 1.428H3.214a1.429 1.429 0 01-1.428-1.428V6.587l-.625.5A.714.714 0 11.268 5.97l1.776-1.42L6.57.672zM3.214 5.43v6.814h2.143V9.387a1.429 1.429 0 011.429-1.429h1.428a1.429 1.429 0 011.429 1.429v2.857h2.143V5.43L7.5 1.756 3.214 5.43zm5 6.814V9.387H6.786v2.857h1.428z" fill="#fff"/></svg>
